packages/ffe-icons/icons/filled/md/source.svg

<svg xmlns="http://www.w3.org/2000/svg" height="24" viewBox="0 -960 960 960" width="24"><path d="M172.309-180.001q-30.308 0-51.308-21t-21-51.308v-455.382q0-30.308 21-51.308t51.239-21h189.679q14.661 0 27.948 5.616 13.286 5.615 23.132 15.461l58.923 58.923h315.769q30.308 0 51.308 21t21 51.308v375.382q0 30.308-21 51.308t-51.308 21H172.309Zm107.691-150h240q12.75 0 21.375-8.628 8.624-8.629 8.624-21.384 0-12.756-8.624-21.371-8.625-8.615-21.375-8.615H280q-12.75 0-21.374 8.628-8.625 8.629-8.625 21.384 0 12.756 8.625 21.371 8.624 8.615 21.374 8.615Zm0-160h400q12.75 0 21.375-8.628 8.624-8.629 8.624-21.384 0-12.756-8.624-21.371-8.625-8.615-21.375-8.615H280q-12.75 0-21.374 8.628-8.625 8.629-8.625 21.384 0 12.756 8.625 21.371 8.624 8.615 21.374 8.615Z"/></svg>

<svg xmlns="http://www.w3.org/2000/svg" height="24" viewBox="0 -960 960 960" width="24"><path d="M172.31-180Q142-180 121-201q-21-21-21-51.31v-455.38Q100-738 121-759q21-21 51.24-21h189.68q14.66 0 27.95 5.62 13.28 5.61 23.13 15.46L471.92-700h315.77Q818-700 839-679q21 21 21 51.31v375.38Q860-222 839-201q-21 21-51.31 21H172.31ZM280-330h240q12.75 0 21.37-8.63 8.63-8.63 8.63-21.38 0-12.76-8.63-21.37Q532.75-390 520-390H280q-12.75 0-21.37 8.63-8.63 8.63-8.63 21.38 0 12.76 8.63 21.37Q267.25-330 280-330Zm0-160h400q12.75 0 21.37-8.63 8.63-8.63 8.63-21.38 0-12.76-8.63-21.37Q692.75-550 680-550H280q-12.75 0-21.37 8.63-8.63 8.63-8.63 21.38 0 12.76 8.63 21.37Q267.25-490 280-490Z"/></svg>
